;Sliced by ideaMaker 4.2.1.5321, 2021-11-01 13:53:11 UTC+0800
;Dimension: 305.000 305.000 300.000 0.400 0.400
;Plate Shape: 0
;Origin Center: 0
;Extruder Offset #1: 0.000 0.000
;Filament Diameter #1: 1.750
;Filament Diameter #2: 1.750
;Filament Compensation #1: 90.00
;Filament Compensation #2: 90.00
;Filament Density #1: 1240.00
;Filament Density #2: 1240.00
;Bounding Box: 125.200 179.900 115.306 189.900 0.000 14.550
;Model Gap: 0.000
M221 T1 S90.00
M140 S70.00
M104 T1 S215.00
M109 T1 S215.00
T1
M190 S70.00
G21
G90
M82
M107
G28 X0 Y0
G28 Z0
G1 Z15.0 F300
G92 E0
G1 F140 E29
G1 X20 Y0 F140 E30
G92 E0
G1 F6000.0
M117 Printing...
M1001
;TOTAL_NUM: 1
;PRINTING_TIME: 0
;REMAINING_TIME: 5363
;LAYER:0
;Z:0.300
;HEIGHT:0.300
M106 S0
;PRINTING: NON-OBJECT
;PRINTING_ID: -1
G1 F2400 E-1.5000
G0 F6000 X125.956 Y117.209
G0 F300 Z0.300
;TYPE:SKIRT
;WIDTH:0.400
G1 F1500 E0.0000
G1 F900 X127.060 Y116.112 E0.0776
G1 X127.323 Y115.909 E0.0942
G1 X127.800 Y115.665 E0.1210
G1 X128.576 Y115.406 E0.1618
G1 X129.078 Y115.322 E0.1872
G1 X131.947 Y115.323 E0.3303
G1 X132.252 Y115.379 E0.3458
G1 X132.518 Y115.472 E0.3598
G1 X132.890 Y115.694 E0.3814
G1 X165.006 Y115.700 E1.9837
G1 X165.111 Y115.622 E1.9902
G1 X165.523 Y115.412 E2.0133
G1 X165.771 Y115.345 E2.0261
G1 X166.107 Y115.306 E2.0430
G1 X176.290 Y115.309 E2.5510
G1 X176.926 Y115.441 E2.5834
G1 X177.194 Y115.566 E2.5982
G1 X177.376 Y115.681 E2.6089
G1 X178.937 Y117.201 E2.7176
G1 X179.272 Y117.685 E2.7470
G1 X179.367 Y117.888 E2.7582
G1 X179.432 Y118.125 E2.7704
G1 X179.557 Y118.280 E2.7804
G1 X179.748 Y118.624 E2.8000
G1 X179.864 Y119.005 E2.8199
G1 X179.900 Y119.337 E2.8365
G1 X179.900 Y185.049 E6.1149
G1 X179.825 Y185.520 E6.1387
G1 X179.656 Y185.944 E6.1615
G1 X179.596 Y186.220 E6.1756
G1 X179.464 Y186.526 E6.1922
G1 X179.403 Y186.809 E6.2066
G1 X179.368 Y186.906 E6.2118
G1 X179.116 Y187.379 E6.2385
G1 X178.944 Y187.587 E6.2520
G1 X177.640 Y188.885 E6.3438
G1 X177.237 Y189.178 E6.3686
G1 X176.884 Y189.342 E6.3881
G1 X175.373 Y189.824 E6.4672
G1 X174.885 Y189.900 E6.4918
G1 X130.415 Y189.900 E8.7104
G1 X129.923 Y189.824 E8.7353
G1 X127.812 Y189.142 E8.8460
G1 X127.254 Y188.847 E8.8775
G1 X127.060 Y188.689 E8.8899
G1 X125.961 Y187.596 E8.9673
G1 X125.753 Y187.332 E8.9840
G1 X125.517 Y186.871 E9.0099
G1 X125.431 Y186.499 E9.0289
G1 X125.289 Y186.162 E9.0472
G1 X125.200 Y185.650 E9.0731
G1 X125.200 Y119.151 E12.3907
G1 X125.275 Y118.680 E12.4145
G1 X125.436 Y118.280 E12.4360
G1 X125.497 Y117.993 E12.4507
G1 X125.532 Y117.894 E12.4559
G1 X125.778 Y117.429 E12.4822
G1 X125.956 Y117.209 E12.4963
G0 F6000 X126.238 Y117.493
G1 F900 X127.342 Y116.396 E12.5739
G1 X127.509 Y116.263 E12.5846
G1 X127.927 Y116.044 E12.6081
G1 X128.703 Y115.785 E12.6489
G1 X129.079 Y115.722 E12.6680
G1 X131.875 Y115.716 E12.8075
G1 X132.180 Y115.772 E12.8229
G1 X132.377 Y115.846 E12.8334
G1 X132.629 Y115.998 E12.8481
G1 X132.740 Y116.094 E12.8554
G1 X165.156 Y116.100 E14.4727
G1 X165.299 Y115.975 E14.4821
G1 X165.635 Y115.796 E14.5011
G1 X165.821 Y115.742 E14.5108
G1 X166.107 Y115.706 E14.5252
G1 X176.290 Y115.709 E15.0332
G1 X176.757 Y115.804 E15.0570
G1 X177.025 Y115.929 E15.0717
G1 X177.155 Y116.015 E15.0795
G1 X178.657 Y117.487 E15.1844
G1 X178.940 Y117.908 E15.2098
G1 X179.000 Y118.047 E15.2173
G1 X179.069 Y118.316 E15.2312
G1 X179.212 Y118.482 E15.2421
G1 X179.368 Y118.749 E15.2575
G1 X179.467 Y119.051 E15.2734
G1 X179.500 Y119.337 E15.2877
G1 X179.500 Y185.049 E18.5661
G1 X179.431 Y185.452 E18.5865
G1 X179.270 Y185.829 E18.6070
G1 X179.229 Y186.062 E18.6188
G1 X179.081 Y186.406 E18.6375
G1 X179.012 Y186.724 E18.6537
G1 X178.806 Y187.127 E18.6763
G1 X178.662 Y187.304 E18.6877
G1 X177.358 Y188.602 E18.7794
G1 X177.065 Y188.817 E18.7976
G1 X176.762 Y188.961 E18.8143
G1 X175.251 Y189.443 E18.8934
G1 X174.885 Y189.500 E18.9119
G1 X130.415 Y189.500 E21.1305
G1 X130.046 Y189.443 E21.1492
G1 X127.935 Y188.761 E21.2598
G1 X127.504 Y188.535 E21.2841
G1 X127.342 Y188.405 E21.2945
G1 X126.243 Y187.312 E21.3718
G1 X126.106 Y187.143 E21.3827
G1 X125.902 Y186.762 E21.4042
G1 X125.840 Y186.543 E21.4156
G1 X125.819 Y186.386 E21.4235
G1 X125.682 Y186.088 E21.4399
G1 X125.600 Y185.650 E21.4621
G1 X125.600 Y119.151 E24.7797
G1 X125.669 Y118.748 E24.8001
G1 X125.817 Y118.409 E24.8186
G1 X125.888 Y118.076 E24.8356
G1 X126.091 Y117.678 E24.8579
G1 X126.238 Y117.493 E24.8697
G1 F2400 E23.3697
G0 F6000 X126.206 Y118.523
G1 F1500 E24.8697
G1 F900 X126.230 Y118.336 E24.8791
G1 X126.273 Y118.186 E24.8868
G1 X126.407 Y117.923 E24.9016
G1 X126.520 Y117.777 E24.9108
G1 X127.624 Y116.680 E24.9884
G1 X127.754 Y116.579 E24.9966
G1 X128.054 Y116.423 E25.0135
G1 X128.830 Y116.164 E25.0543
G1 X129.080 Y116.122 E25.0670
G1 X131.876 Y116.116 E25.2065
G1 X132.096 Y116.163 E25.2177
G1 X132.226 Y116.216 E25.2247
G1 X132.415 Y116.336 E25.2359
G1 X132.575 Y116.494 E25.2471
G1 X165.327 Y116.500 E26.8811
G1 X165.495 Y116.324 E26.8932
G1 X165.759 Y116.176 E26.9083
G1 X165.876 Y116.138 E26.9145
G1 X166.107 Y116.106 E26.9261
G1 X176.290 Y116.109 E27.4341
G1 X176.594 Y116.169 E27.4496
G1 X176.804 Y116.263 E27.4611
G1 X176.934 Y116.349 E27.4688
G1 X178.376 Y117.772 E27.5699
G1 X178.576 Y118.074 E27.5880
G1 X178.618 Y118.166 E27.5930
G1 X178.664 Y118.314 E27.6008
G1 X178.691 Y118.495 E27.6099
G1 X178.873 Y118.694 E27.6233
G1 X178.992 Y118.884 E27.6345
G1 X179.070 Y119.101 E27.6460
G1 X179.100 Y119.337 E27.6579
G1 X179.100 Y185.049 E30.9363
G1 X179.038 Y185.378 E30.9530
G1 X178.948 Y185.591 E30.9645
G1 X178.890 Y185.682 E30.9699
G1 X178.835 Y185.992 E30.9856
G1 X178.692 Y186.291 E31.0022
G1 X178.670 Y186.464 E31.0109
G1 X178.627 Y186.614 E31.0186
G1 X178.492 Y186.879 E31.0335
G1 X178.380 Y187.021 E31.0425
G1 X177.076 Y188.319 E31.1343
G1 X176.890 Y188.458 E31.1459
G1 X176.640 Y188.580 E31.1598
G1 X175.129 Y189.062 E31.2389
G1 X174.885 Y189.100 E31.2512
G1 X130.415 Y189.100 E33.4698
G1 X130.169 Y189.062 E33.4822
G1 X128.058 Y188.380 E33.5929
G1 X127.751 Y188.221 E33.6102
G1 X127.624 Y188.121 E33.6182
G1 X126.525 Y187.028 E33.6956
G1 X126.420 Y186.895 E33.7040
G1 X126.284 Y186.642 E33.7183
G1 X126.236 Y186.489 E33.7263
G1 X126.205 Y186.262 E33.7378
G1 X126.074 Y186.007 E33.7521
G1 X126.000 Y185.650 E33.7703
G1 X126.000 Y119.151 E37.0879
G1 X126.062 Y118.822 E37.1046
G1 X126.206 Y118.523 E37.1212
G0 F6000 X126.596 Y118.666
G1 F900 X126.615 Y118.446 E37.1322
G1 X126.658 Y118.296 E37.1400
G1 X126.729 Y118.160 E37.1476
G1 X126.802 Y118.061 E37.1538
G1 X127.906 Y116.964 E37.2314
G1 X127.993 Y116.899 E37.2368
G1 X128.181 Y116.802 E37.2474
G1 X128.957 Y116.543 E37.2882
G1 X129.082 Y116.522 E37.2945
G1 X131.792 Y116.507 E37.4297
G1 X132.012 Y116.554 E37.4410
G1 X132.201 Y116.674 E37.4521
G1 X132.275 Y116.758 E37.4577
G1 X132.358 Y116.922 E37.4669
G1 X132.500 Y116.900 E37.4740
G1 X165.400 Y116.900 E39.1154
G1 X165.543 Y116.925 E39.1227
G1 X165.675 Y116.698 E39.1358
G1 X165.759 Y116.624 E39.1414
G1 X165.939 Y116.533 E39.1514
G1 X166.107 Y116.506 E39.1599
G1 X176.290 Y116.509 E39.6679
G1 X176.442 Y116.539 E39.6757
G1 X176.583 Y116.597 E39.6833
G1 X176.713 Y116.683 E39.6911
G1 X178.094 Y118.056 E39.7882
G1 X178.236 Y118.285 E39.8017
G1 X178.282 Y118.433 E39.8094
G1 X178.306 Y118.667 E39.8211
G1 X178.578 Y118.964 E39.8412
G1 X178.642 Y119.079 E39.8478
G1 X178.689 Y119.224 E39.8554
G1 X178.700 Y119.337 E39.8611
G1 X178.700 Y185.049 E43.1394
G1 X178.647 Y185.293 E43.1519
G1 X178.587 Y185.419 E43.1589
G1 X178.506 Y185.532 E43.1658
G1 X178.469 Y185.830 E43.1808
G1 X178.371 Y186.051 E43.1928
G1 X178.304 Y186.140 E43.1984
G1 X178.285 Y186.354 E43.2091
G1 X178.242 Y186.504 E43.2169
G1 X178.171 Y186.640 E43.2245
G1 X178.098 Y186.738 E43.2306
G1 X176.794 Y188.036 E43.3224
G1 X176.708 Y188.102 E43.3278
G1 X176.518 Y188.199 E43.3385
G1 X175.007 Y188.681 E43.4176
G1 X174.885 Y188.700 E43.4238
G1 X130.415 Y188.700 E45.6424
G1 X130.292 Y188.681 E45.6486
G1 X128.181 Y187.999 E45.7593
G1 X127.992 Y187.902 E45.7699
G1 X127.906 Y187.837 E45.7753
G1 X126.807 Y186.744 E45.8526
G1 X126.739 Y186.654 E45.8582
G1 X126.666 Y186.522 E45.8657
G1 X126.618 Y186.369 E45.8737
G1 X126.594 Y186.132 E45.8856
G1 X126.463 Y185.914 E45.8983
G1 X126.400 Y185.650 E45.9119
G1 X126.400 Y119.151 E49.2295
G1 X126.453 Y118.907 E49.2420
G1 X126.513 Y118.781 E49.2489
G1 X126.596 Y118.666 E49.2560
G0 F6000 X126.984 Y118.810
G1 F900 X127.013 Y118.481 E49.2725
G1 X127.084 Y118.345 E49.2801
G1 X128.188 Y117.248 E49.3578
G1 X128.308 Y117.181 E49.3646
G1 X129.084 Y116.922 E49.4054
G1 X131.794 Y116.907 E49.5407
G1 X131.901 Y116.938 E49.5462
G1 X131.975 Y117.022 E49.5518
G1 X131.994 Y117.107 E49.5561
G1 X132.000 Y120.279 E49.7144
G1 X132.020 Y120.376 E49.7193
G1 X132.064 Y120.441 E49.7232
G1 X132.129 Y120.483 E49.7271
G1 X132.221 Y120.500 E49.7318
G1 X165.680 Y120.500 E51.4011
G1 X165.776 Y120.480 E51.4059
G1 X165.841 Y120.436 E51.4099
G1 X165.883 Y120.371 E51.4137
G1 X165.900 Y120.279 E51.4184
G1 X165.907 Y117.106 E51.5767
G1 X165.939 Y116.998 E51.5823
G1 X166.023 Y116.924 E51.5879
G1 X166.107 Y116.906 E51.5922
G1 X176.290 Y116.909 E52.1002
G1 X176.431 Y116.967 E52.1078
G1 X177.812 Y118.340 E52.2050
G1 X177.884 Y118.474 E52.2126
G1 X177.919 Y118.816 E52.2297
G1 X178.069 Y119.018 E52.2423
G1 X178.228 Y119.159 E52.2529
G1 X178.292 Y119.274 E52.2594
G1 X178.300 Y119.337 E52.2626
G1 X178.300 Y185.049 E55.5410
G1 X178.262 Y185.186 E55.5481
G1 X178.116 Y185.390 E55.5606
G1 X178.092 Y185.697 E55.5760
G1 X178.052 Y185.810 E55.5819
G1 X177.916 Y185.990 E55.5932
G1 X177.887 Y186.319 E55.6097
G1 X177.816 Y186.455 E55.6173
G1 X176.512 Y187.753 E55.7091
G1 X176.396 Y187.818 E55.7158
G1 X174.885 Y188.300 E55.7949
G1 X130.415 Y188.300 E58.0135
G1 X128.304 Y187.618 E58.1242
G1 X128.188 Y187.553 E58.1308
G1 X127.089 Y186.460 E58.2081
G1 X127.016 Y186.328 E58.2157
G1 X126.981 Y185.986 E58.2328
G1 X126.845 Y185.796 E58.2445
G1 X126.800 Y185.650 E58.2521
G1 X126.800 Y119.151 E61.5697
G1 X126.838 Y119.014 E61.5768
G1 X126.984 Y118.810 E61.5894
G1 F2400 E60.0894
G0 F6000 X132.300 Y120.000
G1 F1500 E61.5894
G1 F900 X132.300 Y117.500 E61.7141
G1 X132.331 Y117.392 E61.7197
G1 X132.416 Y117.319 E61.7253
G1 X132.500 Y117.300 E61.7296
G1 X165.400 Y117.300 E63.3710
G1 X165.508 Y117.331 E63.3766
G1 X165.581 Y117.416 E63.3822
G1 X165.600 Y117.500 E63.3865
G1 X165.600 Y120.000 E63.5112
G1 X165.569 Y120.108 E63.5168
G1 X165.484 Y120.181 E63.5224
G1 X165.400 Y120.200 E63.5267
G1 X132.500 Y120.200 E65.1681
G1 X132.392 Y120.169 E65.1737
G1 X132.319 Y120.084 E65.1793
G1 X132.300 Y120.000 E65.1836
;PRINTING: adder.stl
;PRINTING_ID: 0
G1 F2400 E63.6836
G0 F6000 X133.100 Y119.400
;TYPE:WALL-INNER
;WIDTH:0.400
G1 F1500 E65.1836
G1 F900 X133.100 Y118.100 E65.2484
G1 X164.800 Y118.100 E66.8299
G1 X164.800 Y119.400 E66.8948
G1 X133.100 Y119.400 E68.4763
G1 F2400 E66.9763
G0 F6000 X132.700 Y119.800
;TYPE:WALL-OUTER
;WIDTH:0.400
G1 F1500 E68.4763
G1 F900 X132.700 Y117.700 E68.5811
G1 X165.200 Y117.700 E70.2025
G1 X165.200 Y119.800 E70.3073
G1 X132.700 Y119.800 E71.9287
G1 F2400 E70.4287
G0 F6000 X132.710 Y119.700
G0 X133.645 Y119.220
;TYPE:SOLID-FILL
;WIDTH:0.400
G1 F1500 E71.9287
G1 F900 X133.279 Y118.854 E71.9545
G0 F6000 X133.279 Y118.288
G1 F900 X134.210 Y119.220 E72.0203
G0 F6000 X134.776 Y119.220
G1 F900 X133.836 Y118.279 E72.0866
G0 F6000 X134.401 Y118.279
G1 F900 X135.342 Y119.220 E72.1530
G0 F6000 X135.908 Y119.220
G1 F900 X134.967 Y118.279 E72.2194
G0 F6000 X135.533 Y118.279
G1 F900 X136.473 Y119.220 E72.2858
G0 F6000 X137.039 Y119.220
G1 F900 X136.098 Y118.279 E72.3521
G0 F6000 X136.664 Y118.279
G1 F900 X137.605 Y119.220 E72.4185
G0 F6000 X138.170 Y119.220
G1 F900 X137.230 Y118.279 E72.4849
G0 F6000 X137.796 Y118.279
G1 F900 X138.736 Y119.220 E72.5513
G0 F6000 X139.302 Y119.220
G1 F900 X138.361 Y118.279 E72.6176
G0 F6000 X138.927 Y118.279
G1 F900 X139.867 Y119.220 E72.6840
G0 F6000 X140.433 Y119.220
G1 F900 X139.493 Y118.279 E72.7504
G0 F6000 X140.058 Y118.279
G1 F900 X140.999 Y119.220 E72.8168
G0 F6000 X141.564 Y119.220
G1 F900 X140.624 Y118.279 E72.8831
G0 F6000 X141.190 Y118.279
G1 F900 X142.130 Y119.220 E72.9495
G0 F6000 X142.696 Y119.220
G1 F900 X141.755 Y118.279 E73.0159
G0 F6000 X142.321 Y118.279
G1 F900 X143.261 Y119.220 E73.0822
G0 F6000 X143.827 Y119.220
G1 F900 X142.887 Y118.279 E73.1486
G0 F6000 X143.452 Y118.279
G1 F900 X144.393 Y119.220 E73.2150
G0 F6000 X144.959 Y119.220
G1 F900 X144.018 Y118.279 E73.2814
G0 F6000 X144.584 Y118.279
G1 F900 X145.524 Y119.220 E73.3477
G0 F6000 X146.090 Y119.220
G1 F900 X145.149 Y118.279 E73.4141
G0 F6000 X145.715 Y118.279
G1 F900 X146.656 Y119.220 E73.4805
G0 F6000 X147.221 Y119.220
G1 F900 X146.281 Y118.279 E73.5469
G0 F6000 X146.846 Y118.279
G1 F900 X147.787 Y119.220 E73.6133
G0 F6000 X148.353 Y119.220
G1 F900 X147.412 Y118.279 E73.6796
G0 F6000 X147.978 Y118.279
G1 F900 X148.918 Y119.220 E73.7460
G0 F6000 X149.484 Y119.220
G1 F900 X148.544 Y118.279 E73.8124
G0 F6000 X149.109 Y118.279
G1 F900 X150.050 Y119.220 E73.8788
G0 F6000 X150.615 Y119.220
G1 F900 X149.675 Y118.279 E73.9451
G0 F6000 X150.241 Y118.279
G1 F900 X151.181 Y119.220 E74.0115
G0 F6000 X151.747 Y119.220
G1 F900 X150.806 Y118.279 E74.0779
G0 F6000 X151.372 Y118.279
G1 F900 X152.312 Y119.220 E74.1442
G0 F6000 X152.878 Y119.220
G1 F900 X151.938 Y118.279 E74.2106
G0 F6000 X152.503 Y118.279
G1 F900 X153.444 Y119.220 E74.2770
G0 F6000 X154.009 Y119.220
G1 F900 X153.069 Y118.279 E74.3433
G0 F6000 X153.635 Y118.279
G1 F900 X154.575 Y119.220 E74.4097
G0 F6000 X155.141 Y119.220
G1 F900 X154.200 Y118.279 E74.4761
G0 F6000 X154.766 Y118.279
G1 F900 X155.707 Y119.220 E74.5425
G0 F6000 X156.272 Y119.220
G1 F900 X155.332 Y118.279 E74.6088
G0 F6000 X155.897 Y118.279
G1 F900 X156.838 Y119.220 E74.6752
G0 F6000 X157.404 Y119.220
G1 F900 X156.463 Y118.279 E74.7416
G0 F6000 X157.029 Y118.279
G1 F900 X157.969 Y119.220 E74.8080
G0 F6000 X158.535 Y119.220
G1 F900 X157.595 Y118.279 E74.8743
G0 F6000 X158.160 Y118.279
G1 F900 X159.101 Y119.220 E74.9407
G0 F6000 X159.666 Y119.220
G1 F900 X158.726 Y118.279 E75.0071
G0 F6000 X159.292 Y118.279
G1 F900 X160.232 Y119.220 E75.0734
G0 F6000 X160.798 Y119.220
G1 F900 X159.857 Y118.279 E75.1398
G0 F6000 X160.423 Y118.279
G1 F900 X161.363 Y119.220 E75.2062
G0 F6000 X161.929 Y119.220
G1 F900 X160.989 Y118.279 E75.2725
G0 F6000 X161.554 Y118.279
G1 F900 X162.495 Y119.220 E75.3389
G0 F6000 X163.060 Y119.220
G1 F900 X162.120 Y118.279 E75.4053
G0 F6000 X162.686 Y118.279
G1 F900 X163.626 Y119.220 E75.4716
G0 F6000 X164.192 Y119.220
G1 F900 X163.251 Y118.279 E75.5380
G0 F6000 X163.817 Y118.279
G1 F900 X164.619 Y119.081 E75.5946
G0 F6000 X164.619 Y118.516
G1 F900 X164.383 Y118.279 E75.6113
;PRINTING: NON-OBJECT
;PRINTING_ID: -1
G1 F2400 E74.1113
G0 F6000 X166.299 Y117.414
;TYPE:SUPPORT
;WIDTH:0.400
G1 F1500 E75.6113
G1 F900 X166.414 Y117.299 E75.6194
G1 X168.299 Y117.299 E75.7135
G1 X166.299 Y119.299 E75.8546
G1 F2400 E74.3546
G0 F6000 X170.184 Y117.299
G1 F1500 E75.8546
G1 F900 X172.069 Y117.299 E75.9486
G1 X166.420 Y122.948 E76.3472
G1 X168.313 Y122.941 E76.4416
G1 X173.954 Y117.299 E76.8397
G1 X175.839 Y117.299 E76.9337
G1 X170.206 Y122.932 E77.3312
G1 X171.999 Y123.025 E77.4207
G1 X176.965 Y118.059 E77.7711
G1 X177.698 Y119.211 E77.8392
G1 X171.999 Y124.910 E78.2413
G1 X171.999 Y126.795 E78.3354
G1 X177.898 Y120.896 E78.7516
G1 F2400 E77.2516
G0 F6000 X164.699 Y120.899
G1 F1500 E78.7516
G1 F900 X162.633 Y122.965 E78.8973
G1 X164.526 Y122.957 E78.9918
G1 X170.184 Y117.299 E79.3910
G1 F2400 E77.8910
G0 F6000 X166.241 Y120.841
G0 X162.814 Y120.899
G1 F1500 E79.3910
G1 F900 X160.739 Y122.974 E79.5374
G1 X158.845 Y122.982 E79.6319
G1 X160.929 Y120.899 E79.7789
G1 X159.043 Y120.899 E79.8730
G1 X156.952 Y122.991 E80.0205
G1 X155.058 Y122.999 E80.1150
G1 X157.158 Y120.899 E80.2632
G1 X155.273 Y120.899 E80.3572
G1 X153.164 Y123.008 E80.5060
G1 X151.272 Y123.016 E80.6004
G1 X153.388 Y120.899 E80.7498
G1 X151.503 Y120.899 E80.8438
G1 X149.378 Y123.024 E80.9937
G1 X147.484 Y123.033 E81.0882
G1 X149.618 Y120.899 E81.2388
G1 X147.732 Y120.899 E81.3329
G1 X145.591 Y123.041 E81.4840
G1 X143.697 Y123.050 E81.5785
